components/icon/svg/24/maps_map.svg

<?xml version="1.0" encoding="UTF-8"?>
<svg width="24px" height="24px" viewBox="0 0 24 24" version="1.1" xmlns="http://www.w3.org/2000/svg" xmlns:xlink="http://www.w3.org/1999/xlink">
    <!-- Generator: Sketch 64 (93537) - https://sketch.com -->
    <title>ic-db_maps_map_24</title>
    <desc>Created with Sketch.</desc>
    <g id="Symbols:Icon" stroke="none" stroke-width="1" fill="none" fill-rule="evenodd">
        <g id="24dp-Icon/Maps/Map" fill="#282D37">
            <path d="M9,2 C9.1875,2 9.4062,2.0938 9.5312,2.1562 L15,4.9062 L20.1875,2.3125 C20.5252,2.1436 20.875,2.0312 21.1562,2.0312 C21.6562,2.0312 22,2.4688 22,2.9062 L22,16.9688 C22,17.3438 21.875,17.6875 21.4688,17.875 L15.5,20.875 C15.375,20.9375 15.25,21 15.0312,21 C14.7812,21 14.6562,20.9375 14.5625,20.875 L9.0312,18.0938 L3.75,20.75 C3.5,20.8438 3.1562,21 2.875,21 C2.4375,21 2,20.6875 2,20.0938 L2,6.0312 C2,5.6875 2.15,5.332 2.4375,5.1875 L8.4688,2.1562 C8.557,2.1119 8.7812,2 9,2 Z M8.0312,4.625 L4,6.6562 L4,18.375 L8.0312,16.3438 L8.0312,4.625 Z M10.0312,4.625 L10.0312,16.3438 L14,18.375 L14,6.6562 L10.0312,4.625 Z M20,4.625 L16,6.6562 L16,18.375 L20,16.3438 L20,4.625 Z" id="🎨-Color"></path>
        </g>
    </g>
</svg>

<svg width="24" height="24" xmlns="http://www.w3.org/2000/svg"><path d="M9 2c.188 0 .406.094.531.156L15 4.906l5.188-2.593c.337-.17.687-.282.968-.282.5 0 .844.438.844.875V16.97c0 .375-.125.718-.531.906l-5.969 3c-.125.063-.25.125-.469.125-.25 0-.375-.063-.469-.125l-5.53-2.781L3.75 20.75c-.25.094-.594.25-.875.25-.438 0-.875-.313-.875-.906V6.03c0-.343.15-.699.438-.843l6.03-3.032C8.558 2.112 8.782 2 9 2zm-.969 2.625L4 6.656v11.719l4.031-2.031V4.625zm2 0v11.719L14 18.375V6.656l-3.969-2.031zm9.969 0l-4 2.031v11.719l4-2.031V4.625z" fill="#282D37" fill-rule="evenodd"/></svg>
